static/img/kroki/75ef2908798d26c3d278bf1fb3f4f5e0.svg

<?xml version="1.0" encoding="us-ascii" standalone="no"?><svg xmlns="http://www.w3.org/2000/svg" xmlns:xlink="http://www.w3.org/1999/xlink" contentStyleType="text/css" height="152px" preserveAspectRatio="none" style="width:370px;height:152px;" version="1.1" viewBox="0 0 370 152" width="370px" zoomAndPan="magnify"><defs/><g><!--class azure_authorization_role_assignment--><g id="elem_azure_authorization_role_assignment"><rect codeLine="23" fill="#3D176E" height="39.7891" id="azure_authorization_role_assignment" rx="2.5" ry="2.5" style="stroke:#000D19;stroke-width:0.5;" width="356" x="7" y="7"/><ellipse cx="22" cy="26.8945" fill="#ADD1B2" rx="11" ry="11" style="stroke:#181818;stroke-width:1.0;"/><path d="M24.9688,32.5352 Q24.3906,32.832 23.75,32.9727 Q23.1094,33.1289 22.4063,33.1289 Q19.9063,33.1289 18.5781,31.4883 Q17.2656,29.832 17.2656,26.707 Q17.2656,23.582 18.5781,21.9258 Q19.9063,20.2695 22.4063,20.2695 Q23.1094,20.2695 23.75,20.4258 Q24.4063,20.582 24.9688,20.8789 L24.9688,23.5977 Q24.3438,23.0195 23.75,22.7539 Q23.1563,22.4727 22.5313,22.4727 Q21.1875,22.4727 20.5,23.5508 Q19.8125,24.6133 19.8125,26.707 Q19.8125,28.8008 20.5,29.8789 Q21.1875,30.9414 22.5313,30.9414 Q23.1563,30.9414 23.75,30.6758 Q24.3438,30.3945 24.9688,29.8164 L24.9688,32.5352 Z " fill="#000000"/><text fill="#D9B8FF" font-family="Helvetica" font-size="17" lengthAdjust="spacing" textLength="314" x="41" y="32.7798">azure_authorization_role_assignment</text></g><!--class azure_authorization_role_definition--><g id="elem_azure_authorization_role_definition"><rect codeLine="26" fill="#3D176E" height="39.7891" id="azure_authorization_role_definition" rx="2.5" ry="2.5" style="stroke:#000D19;stroke-width:0.5;" width="339" x="15.5" y="106.79"/><ellipse cx="30.5" cy="126.6845" fill="#ADD1B2" rx="11" ry="11" style="stroke:#181818;stroke-width:1.0;"/><path d="M33.4688,132.3252 Q32.8906,132.622 32.25,132.7627 Q31.6094,132.9189 30.9063,132.9189 Q28.4063,132.9189 27.0781,131.2783 Q25.7656,129.622 25.7656,126.497 Q25.7656,123.372 27.0781,121.7158 Q28.4063,120.0595 30.9063,120.0595 Q31.6094,120.0595 32.25,120.2158 Q32.9063,120.372 33.4688,120.6689 L33.4688,123.3877 Q32.8438,122.8095 32.25,122.5439 Q31.6563,122.2627 31.0313,122.2627 Q29.6875,122.2627 29,123.3408 Q28.3125,124.4033 28.3125,126.497 Q28.3125,128.5908 29,129.6689 Q29.6875,130.7314 31.0313,130.7314 Q31.6563,130.7314 32.25,130.4658 Q32.8438,130.1845 33.4688,129.6064 L33.4688,132.3252 Z " fill="#000000"/><text fill="#D9B8FF" font-family="Helvetica" font-size="17" lengthAdjust="spacing" textLength="297" x="49.5" y="132.5698">azure_authorization_role_definition</text></g><!--link azure_authorization_role_assignment to azure_authorization_role_definition--><g id="link_azure_authorization_role_assignment_azure_authorization_role_definition"><path codeLine="29" d="M174.6,47.22 C171.46,64.36 170.3888,83.3682 173.5288,100.5082 " fill="none" id="azure_authorization_role_assignment-to-azure_authorization_role_definition" style="stroke:#1A83AF;stroke-width:2.0;"/><polygon fill="#1A83AF" points="174.61,106.41,176.9227,96.8365,173.709,101.4918,169.0537,98.2781,174.61,106.41" style="stroke:#1A83AF;stroke-width:2.0;"/></g><!--link azure_authorization_role_definition to azure_authorization_role_assignment--><g id="link_azure_authorization_role_definition_azure_authorization_role_assignment"><path codeLine="30" d="M196,106.41 C199.33,89.27 200.471,70.2505 197.151,53.1105 " fill="none" id="azure_authorization_role_definition-to-azure_authorization_role_assignment" style="stroke:#1A83AF;stroke-width:2.0;"/><polygon fill="#1A83AF" points="196.01,47.22,193.7945,56.8164,196.9608,52.1288,201.6485,55.2951,196.01,47.22" style="stroke:#1A83AF;stroke-width:2.0;"/></g><!--SRC=[ZP9FQy904CNl-HGBdWLJQTLB8HMalKYflPKYOtRMB4bsm-oaegNVlKdjdpMf9iUTz-EzDyCcMgB0lE2zo37V8Bd0fTeKG92BYCZkvZQp90PAWHfFckB26ku4bf2ZkCVi3Ld7q2IU4nsd1fqJLvvq1t6w9LiQURHd0kCg2Grxr3m3vo9cqfkIqIiZPvkfKasoQJeOot1oWotCaaJwHaQZaGndJQGpwkBUlyHA7r24_j6Mbh5LinNnHLriMHDUoTQYF_hPZeyWfJPRSUtDdewTo22Tp5S9IBkhQGMPysCS8w7bVO7prbOucqer-HT-E0S7SNqw0OUIS0qb9vRq0LXRioQRLIFdzDRarIyHxq7mqOLBLDhe-dt4-_WENmPXD1r7YzVXRH_de4zwFzE_5i4d]--></g></svg>

<svg xmlns="http://www.w3.org/2000/svg" width="370" height="152" viewBox="0 0 370 152"><rect width="356" height="39.789" x="7" y="7" fill="#3D176E" rx="2.5" ry="2.5" style="stroke:#000d19;stroke-width:.5"/><circle cx="22" cy="26.895" r="11" fill="#ADD1B2" style="stroke:#181818;stroke-width:1"/><path d="M24.969 32.535q-.578.297-1.219.438-.64.156-1.344.156-2.5 0-3.828-1.64-1.312-1.657-1.312-4.782t1.312-4.781q1.328-1.656 3.828-1.656.703 0 1.344.156.656.156 1.219.453v2.719q-.625-.578-1.219-.844-.594-.281-1.219-.281-1.343 0-2.031 1.078-.687 1.062-.687 3.156t.687 3.172q.688 1.062 2.031 1.062.625 0 1.219-.265.594-.281 1.219-.86z"/><text x="41" y="32.78" fill="#D9B8FF" font-family="Helvetica" font-size="17" textLength="314">azure_authorization_role_assignment</text><rect width="339" height="39.789" x="15.5" y="106.79" fill="#3D176E" rx="2.5" ry="2.5" style="stroke:#000d19;stroke-width:.5"/><circle cx="30.5" cy="126.684" r="11" fill="#ADD1B2" style="stroke:#181818;stroke-width:1"/><path d="M33.469 132.325q-.578.297-1.219.438-.64.156-1.344.156-2.5 0-3.828-1.64-1.312-1.657-1.312-4.782t1.312-4.781q1.328-1.656 3.828-1.656.703 0 1.344.156.656.156 1.219.453v2.719q-.625-.579-1.219-.844-.594-.281-1.219-.281-1.343 0-2.031 1.078-.687 1.062-.687 3.156t.687 3.172q.688 1.062 2.031 1.062.625 0 1.219-.265.594-.281 1.219-.86z"/><text x="49.5" y="132.57" fill="#D9B8FF" font-family="Helvetica" font-size="17" textLength="297">azure_authorization_role_definition</text><path fill="none" d="M174.6 47.22c-3.14 17.14-4.211 36.148-1.071 53.288" style="stroke:#1a83af;stroke-width:2"/><path fill="#1A83AF" d="m174.61 106.41 2.313-9.573-3.214 4.655-4.655-3.214z" style="stroke:#1a83af;stroke-width:2"/><path fill="none" d="M196 106.41c3.33-17.14 4.471-36.16 1.151-53.3" style="stroke:#1a83af;stroke-width:2"/><path fill="#1A83AF" d="m196.01 47.22-2.215 9.596 3.166-4.687 4.688 3.166z" style="stroke:#1a83af;stroke-width:2"/></svg>
